icons/heart.svg

<svg width="24" height="24" viewBox="0 0 24 24" fill="none" xmlns="http://www.w3.org/2000/svg">
<path fill-rule="evenodd" clip-rule="evenodd" d="M8.0343 4.02593C7.41109 3.95863 6.78075 4.02266 6.18278 4.21416C5.58479 4.40568 5.03162 4.72072 4.55836 5.14014C4.08507 5.55958 3.70192 6.0744 3.43372 6.65259C3.16549 7.23081 3.01823 7.8595 3.00159 8.49899C2.98495 9.13848 3.09931 9.77426 3.33717 10.3662C3.57501 10.958 3.93099 11.4928 4.382 11.937L4.38828 11.9432L4.38825 11.9433L12.0093 19.584L19.6303 11.9433C19.6523 11.9212 19.675 11.9004 19.6985 11.8808C20.1152 11.4494 20.4451 10.9385 20.6686 10.3767C20.9038 9.78584 21.0161 9.15177 20.9981 8.51431C20.9802 7.87685 20.8325 7.25038 20.5647 6.67419L21.4715 6.25264L20.5647 6.67419C20.2968 6.09803 19.9148 5.58493 19.4432 5.16657C18.9716 4.74825 18.4205 4.4336 17.8247 4.24163C17.2289 4.04968 16.6008 3.98435 15.9793 4.04955C15.3578 4.11474 14.7558 4.30914 14.2109 4.62108C13.6659 4.93305 13.1895 5.35605 12.812 5.86425C12.6228 6.11902 12.3238 6.26884 12.0065 6.26796C11.6891 6.26708 11.391 6.11561 11.2032 5.85978C10.8273 5.34785 10.3515 4.9211 9.80611 4.60578C9.26079 4.29048 8.65753 4.09323 8.0343 4.02593ZM20.9736 13.4285L12.7173 21.7062C12.5297 21.8943 12.2749 22 12.0093 22C11.7436 22 11.4888 21.8943 11.3012 21.7062L2.97518 13.3586C2.32901 12.7212 1.82067 11.9562 1.4814 11.1119C1.14156 10.2662 0.978534 9.35891 1.00226 8.44697C1.02599 7.53503 1.23599 6.63755 1.61941 5.81098C2.00285 4.98437 2.55163 4.24619 3.23186 3.64335C3.91211 3.04048 4.70906 2.58608 5.57277 2.30946C6.43651 2.03284 7.34779 1.94017 8.24903 2.03749C9.15026 2.13481 10.0213 2.41994 10.8072 2.87437C11.2432 3.12646 11.6477 3.42757 12.0134 3.771C12.379 3.43155 12.7826 3.13416 13.2172 2.88537C14.0026 2.43575 14.8719 2.15474 15.7706 2.06046C16.6693 1.96618 17.5775 2.06073 18.4381 2.338C19.2986 2.61526 20.0925 3.06909 20.7704 3.67039C21.4482 4.27166 21.9954 5.00739 22.3783 5.8311C22.7612 6.65478 22.9718 7.54908 22.9974 8.45813C23.0229 9.36717 22.8628 10.272 22.5269 11.1162C22.1909 11.9604 21.6861 12.7262 21.0434 13.3653C21.0209 13.3877 20.9976 13.4088 20.9736 13.4285Z" fill="black"/>
</svg>

<svg
  width="24"
  height="24"
  viewBox="0 0 24 24"
  xmlns="http://www.w3.org/2000/svg"
>
  <path
    fill-rule="evenodd"
    clip-rule="evenodd"
    d="M8.034 4.026a4.489 4.489 0 0 0-1.851.188 4.535 4.535 0 0 0-1.625.926c-.473.42-.856.934-1.124 1.513a4.678 4.678 0 0 0 .948 5.284l.006.006 7.621 7.641 7.621-7.64a1 1 0 0 1 .069-.063c.416-.432.746-.943.97-1.504a4.68 4.68 0 0 0-.104-3.703l.906-.421-.906.421a4.617 4.617 0 0 0-1.122-1.507 4.536 4.536 0 0 0-1.618-.925 4.489 4.489 0 0 0-3.614.38 4.574 4.574 0 0 0-1.399 1.242 1 1 0 0 1-1.609-.004 4.575 4.575 0 0 0-1.397-1.254 4.506 4.506 0 0 0-1.772-.58zm12.94 9.402l-8.257 8.278a1 1 0 0 1-1.416 0L2.975 13.36a6.625 6.625 0 0 1-1.494-2.247A6.682 6.682 0 0 1 1.62 5.81a6.615 6.615 0 0 1 1.613-2.168 6.535 6.535 0 0 1 2.34-1.334 6.489 6.489 0 0 1 5.235.565c.436.252.84.554 1.206.897a6.505 6.505 0 0 1 6.425-1.433c.86.277 1.654.731 2.332 1.332a6.615 6.615 0 0 1 1.608 2.161 6.679 6.679 0 0 1-1.335 7.534.983.983 0 0 1-.07.063z"
  />
</svg>
